!!!SOCIAL_FUNCTION:	songs with treatment of the sick
!!!PDT:	1943
!!!OTL: No_6_Song_When_Treating_Pneumonia.krn
!!!REG: British Columbia
**kern
*staff1
=1-
*clefF4
*k[b-e-]
*M2/4
4r
8.r
16F\
=2
8.F\L
16F\Jk
8F\
8r
=3
8E-/L
8C/J
8C/
16r
16E-\
=4||
*M5/8
8.E-/L
16C/K
8C/
8BB-/J
8r
=5||
*M2/4
8.GG/L
16FF/Jk
8FF/
16r
16E-\
=6||
*M5/8
8.E-/L
16C/K
8C/
8BB-/J
8r
=7||
*M2/4
8.GG/L
16FF/Jk
8FF/
16r
16BB-/
=8
4BB-/
8.C/L
16BB-/Jk
=9
8GG/L
8GG/J
4GG/
=10
4FF/
4r
==
*-
